rospo-icon-theme-classic-common/16x16/apps/dmd-doc.svg

<svg height="16" width="16" xmlns="http://www.w3.org/2000/svg"><rect fill="#c52f2f" height="16" rx=".813" ry=".8" transform="matrix(0 -1 -1 0 0 0)" width="13" x="-14" y="-16"/><path d="m0 8v5.1875c0 .450125.3568.8125.8.8125h14.4c.4432 0 .8-.362375.8-.8125v-2.138367c-4.9085-1.7627034-12.0148808-3.0196413-16-3.049133z" opacity=".2"/><path d="m12.986705 5.5c0 1.3807117-1.119289 2.5-2.5 2.5-.35635 0-.6952871-.0745575-1.0020616-.2089237-.8818513-.3862484-.4090325-1.074555-.4090325-2.0989163 0-.4797479-.953773-1.1200933-.7194938-1.5007296.4399746-.7148337 1.2296238-1.1914304 2.1305879-1.1914304 1.380711 0 2.5 1.1192883 2.5 2.5z" fill="#ff783e"/><circle cx="14" cy="4" fill="#ffba46" r="1"/><path d="m2.4090909 3c-.2266364 0-.4090909.1824545-.4090909.4090909v8.1818181c0 .226636.1824545.409091.4090909.409091h.7015271.1166547 3.389382c.00906 0 .016724-.006.025568-.0072 2.4267778-.076735 4.3551053-2.0648108 4.3577773-4.4928-.001522-2.4322302-1.9354048-4.4230859-4.366566-4.4952059-.0058623-.0004864-.0108266-.0047941-.0167793-.0047941h-3.389382-.1166547zm1.5909091 2h2.5c1.5815427 0 2.5.9184573 2.5 2.5-.0000002 1.5815426-.9349269 2.2723532-2.5 2.5h-2.5z" fill="#fff"/></svg>

<svg xmlns="http://www.w3.org/2000/svg" width="16" height="16" version="1">
 <rect width="13" height="16" x="-14" y="-16" rx=".813" ry=".8" transform="matrix(0,-1,-1,0,0,0)" style="fill:#c52f2f"/>
 <path style="opacity:0.2" d="m 0,8 0,5.1875 C 0,13.637625 0.3568,14 0.8,14 l 14.4,0 c 0.4432,0 0.8,-0.362375 0.8,-0.8125 l 0,-2.138367 C 11.0915,9.2864296 3.9851192,8.0294917 0,8 Z"/>
 <path style="fill:#ff783e" d="m 12.986705,5.5 c 0,1.3807117 -1.119289,2.5 -2.5,2.5 C 10.130355,8 9.7914179,7.9254425 9.4846434,7.7910763 8.6027921,7.4048279 9.0756109,6.7165213 9.0756109,5.69216 9.0756109,5.2124121 8.1218379,4.5720667 8.3561171,4.1914304 8.7960917,3.4765967 9.5857409,3 10.486705,3 c 1.380711,0 2.5,1.1192883 2.5,2.5 z"/>
 <circle cx="14" cy="4" r="1" style="fill:#ffba46"/>
 <path style="fill:#ffffff" d="M 2.4090909,3 C 2.1824545,3 2,3.1824545 2,3.4090909 L 2,11.590909 C 2,11.817545 2.1824545,12 2.4090909,12 l 0.7015271,0 0.1166547,0 3.389382,0 c 0.00906,0 0.016724,-0.006 0.025568,-0.0072 C 9.0690005,11.916065 10.997328,9.9279892 11,7.5 10.998478,5.0677698 9.0645952,3.0769141 6.633434,3.0047941 6.6275717,3.0043077 6.6226074,3 6.6166547,3 L 3.2272727,3 3.110618,3 Z M 4,5 6.5,5 C 8.0815427,5 9,5.9184573 9,7.5 8.9999998,9.0815426 8.0650731,9.7723532 6.5,10 L 4,10 Z"/>
</svg>
